brandFactory_export/1.Light/Llave_1Light.svg

<?xml version="1.0" encoding="UTF-8"?>
<svg width="24px" height="24px" viewBox="0 0 24 24" version="1.1" xmlns="http://www.w3.org/2000/svg" xmlns:xlink="http://www.w3.org/1999/xlink">
    <title>1.Light/Llave_1Light</title>
    <g id="Symbols" stroke="none" stroke-width="1" fill="none" fill-rule="evenodd">
        <g id="1.Light/Llave_1Light" fill="#5CB615" fill-rule="nonzero">
            <path d="M4.29579832,12.7613445 C4.89747899,12.7613445 5.13277311,12.5260504 5.13277311,11.9210084 C5.13277311,11.3159664 4.89747899,11.0806723 4.29579832,11.0806723 C3.69411765,11.0806723 3.45882353,11.3159664 3.45882353,11.9210084 C3.45882353,12.5260504 3.69411765,12.7613445 4.29579832,12.7613445 L4.29579832,12.7613445 Z M4.29579832,10.0722689 C5.44537815,10.0722689 6.13445378,10.7647059 6.13445378,11.9210084 C6.13445378,13.0773109 5.4487395,13.7663866 4.29579832,13.7663866 C3.14621849,13.7663866 2.45714286,13.0739496 2.45714286,11.9210084 C2.45714286,10.7647059 3.14621849,10.0756303 4.29579832,10.0722689 Z M20.8,13.4 L22.389916,11.8773109 L20.5512605,10.1529412 L8.87394958,10.1529412 C8.67563025,10.1529412 8.49747899,10.0352941 8.41680672,9.85378151 C7.86554622,8.61008403 6.71260504,8.00504202 4.89747899,8.00504202 C2.27563025,8.00504202 1.00168067,9.28571429 1.00168067,11.9176471 C1.00168067,14.5529412 2.27563025,15.8336134 4.89747899,15.8336134 C6.61176471,15.8336134 7.73781513,15.3226891 8.24201681,14.3176471 C8.29243697,14.2201681 8.41008403,13.9176471 8.41008403,13.9176471 C8.48403361,13.7260504 8.66890756,13.5983193 8.87731092,13.5983193 L14.5277311,13.5983193 L15.7277311,11.8638655 C15.8184874,11.7327731 15.9663866,11.6521008 16.1277311,11.6487395 C16.292437,11.6218487 16.4403361,11.7159664 16.5378151,11.8436975 L17.5966387,13.2218487 L18.4268908,11.8840336 C18.5714286,11.6487395 18.8806723,11.5781513 19.112605,11.7226891 C19.1462185,11.7428571 19.1764706,11.7663866 19.2033613,11.7932773 C19.2,11.7966387 20.8,13.4 20.8,13.4 Z M23.4621849,11.507563 C23.6672269,11.6957983 23.6773109,12.0151261 23.4857143,12.2201681 L23.4655462,12.2403361 L21.1361345,14.4722689 C20.9378151,14.6605042 20.6285714,14.6537815 20.4369748,14.4621849 L18.9378151,12.9596639 L18.0605042,14.3747899 C17.9731092,14.512605 17.8252101,14.6033613 17.6605042,14.610084 C17.4957983,14.6268908 17.3344538,14.5529412 17.2403361,14.4151261 L16.1579832,13.0067227 L15.1966387,14.394958 C15.102521,14.5294118 14.9512605,14.610084 14.7865546,14.610084 L9.21008403,14.610084 C9.17983193,14.6773109 9.15294118,14.7378151 9.13613445,14.7747899 C8.4605042,16.1260504 6.99495798,16.8420168 4.89747899,16.8420168 C1.73781513,16.8420168 1.77635684e-15,15.0941176 1.77635684e-15,11.9210084 C1.77635684e-15,8.74789916 1.73781513,7 4.89747899,7 C7.42184874,7 8.61848739,8.10588235 9.18319328,9.14789916 L20.7495798,9.14789916 C20.8773109,9.14789916 20.9983193,9.19831933 21.092437,9.28235294 L23.4621849,11.507563 Z" id="Llave_1Light"></path>
        </g>
    </g>
</svg>

<svg width="24" height="24" viewBox="0 0 24 24" xmlns="http://www.w3.org/2000/svg"><path d="M4.296 12.761c.601 0 .837-.235.837-.84s-.236-.84-.837-.84c-.602 0-.837.235-.837.84s.235.84.837.84zm0-2.689c1.15 0 1.838.693 1.838 1.849 0 1.156-.685 1.845-1.838 1.845-1.15 0-1.839-.692-1.839-1.845 0-1.156.69-1.845 1.839-1.849zM20.8 13.4l1.59-1.523-1.839-1.724H8.874a.5.5 0 01-.457-.3c-.551-1.243-1.704-1.848-3.52-1.848-2.621 0-3.895 1.28-3.895 3.913 0 2.635 1.274 3.916 3.895 3.916 1.715 0 2.84-.511 3.345-1.516.05-.098.168-.4.168-.4a.5.5 0 01.467-.32h5.65l1.2-1.734a.499.499 0 01.4-.215c.165-.027.313.067.41.195l1.06 1.378.83-1.338a.497.497 0 01.776-.09C19.2 11.796 20.8 13.4 20.8 13.4zm2.662-1.892a.501.501 0 01.024.712l-.02.02-2.33 2.232a.5.5 0 01-.699-.01l-1.5-1.502-.876 1.415a.5.5 0 01-.4.235.453.453 0 01-.42-.195l-1.083-1.408-.961 1.388a.5.5 0 01-.41.215H9.21l-.074.165c-.675 1.351-2.141 2.067-4.239 2.067-3.16 0-4.897-1.748-4.897-4.921S1.738 7 4.897 7c2.525 0 3.721 1.106 4.286 2.148H20.75c.127 0 .248.05.342.134l2.37 2.226z" fill="#5CB615" fill-rule="nonzero"/></svg>
